;FLAVOR:Marlin
;TIME:10525
;Filament used: 11.9564m
;Layer height: 0.2
;MINX:-7.8
;MINY:-82.8
;MINZ:0.3
;MAXX:207.8
;MAXY:82.8
;MAXZ:0.9
;Generated with Cura_SteamEngine 4.2.1
M104 S200
M105
M109 S200
M82 ;absolute extrusion mode
G28 ;Home
G1 Z15.0 F6000 ;Move the platform down 15mm
;Prime the extruder
G92 E0
G1 F200 E3
G92 E0
M141 S28
G92 E0
G92 E0
G1 F1500 E-6.5
;LAYER_COUNT:4
;LAYER:0
M107
G0 F3600 X-7.8 Y75 Z0.3
;TYPE:SKIRT
G1 F1500 E0
G1 F1800 X-7.8 Y-75 E7.48353
G1 X-7.76 Y-75.789 E7.52294
G1 X-7.641 Y-76.569 E7.56231
G1 X-7.443 Y-77.334 E7.60173
G1 X-7.169 Y-78.074 E7.6411
G1 X-6.821 Y-78.783 E7.6805
G1 X-6.403 Y-79.454 E7.71994
G1 X-5.92 Y-80.078 E7.75931
G1 X-5.377 Y-80.651 E7.7987
G1 X-4.778 Y-81.166 E7.83811
G1 X-4.13 Y-81.617 E7.8775
G1 X-3.439 Y-82.001 E7.91694
G1 X-2.714 Y-82.313 E7.95631
G1 X-1.961 Y-82.55 E7.9957
G1 X-1.187 Y-82.709 E8.03512
G1 X-.402 Y-82.79 E8.07449
G1 X0.00 Y-82.8 E8.09455
G1 X200 Y-82.8 E18.07259
G1 X200.789 Y-82.76 E18.11201
G1 X201.569 Y-82.641 E18.15137
G1 X202.334 Y-82.443 E18.1908
G1 X203.074 Y-82.169 E18.23016
G1 X203.783 Y-81.821 E18.26957
G1 X204.454 Y-81.403 E18.30901
G1 X205.078 Y-80.92 E18.34838
G1 X205.651 Y-80.377 E18.38776
G1 X206.166 Y-79.778 E18.42717
G1 X206.617 Y-79.13 E18.46656
G1 X207.001 Y-78.439 E18.506
G1 X207.313 Y-77.714 E18.54538
G1 X207.55 Y-76.961 E18.58476
G1 X207.709 Y-76.187 E18.62418
G1 X207.79 Y-75.402 E18.66355
G1 X207.8 Y-75 E18.68361
G1 X207.8 Y75 E26.16715
G1 X207.76 Y75.789 E26.20656
G1 X207.641 Y76.569 E26.24592
G1 X207.443 Y77.334 E26.28535
G1 X207.169 Y78.074 E26.32472
G1 X206.821 Y78.783 E26.36412
G1 X206.403 Y79.454 E26.40356
G1 X205.92 Y80.078 E26.44293
G1 X205.377 Y80.651 E26.48231
G1 X204.778 Y81.166 E26.52172
G1 X204.13 Y81.617 E26.56111
G1 X203.439 Y82.001 E26.60055
G1 X202.714 Y82.313 E26.63993
G1 X201.961 Y82.55 E26.67931
G1 X201.187 Y82.709 E26.71873
G1 X200.402 Y82.79 E26.75811
G1 X200 Y82.8 E26.77817
G1 X0.00 Y82.8 E36.75621
G1 X-.789 Y82.76 E36.79562
G1 X-1.569 Y82.641 E36.83499
G1 X-2.334 Y82.443 E36.87441
G1 X-3.074 Y82.169 E36.91378
G1 X-3.783 Y81.821 E36.95318
G1 X-4.454 Y81.403 E36.99262
G1 X-5.078 Y80.92 E37.03199
G1 X-5.651 Y80.377 E37.07137
G1 X-6.166 Y79.778 E37.11079
G1 X-6.617 Y79.13 E37.15017
G1 X-7.001 Y78.439 E37.18961
G1 X-7.313 Y77.714 E37.22899
G1 X-7.55 Y76.961 E37.26837
G1 X-7.709 Y76.187 E37.3078
G1 X-7.79 Y75.402 E37.34717
G1 X-7.8 Y75 E37.36723
G0 F3600 X-7.4 Y75
G1 F1800 X-7.4 Y-75 E44.85076
G1 X-7.36 Y-75.768 E44.88913
G1 X-7.241 Y-76.528 E44.92751
G1 X-7.043 Y-77.271 E44.96587
G1 X-6.769 Y-77.99 E45.00426
G1 X-6.422 Y-78.676 E45.04261
G1 X-6.006 Y-79.323 E45.08099
G1 X-5.525 Y-79.923 E45.11935
G1 X-4.984 Y-80.47 E45.15773
G1 X-4.389 Y-80.958 E45.19613
G1 X-3.747 Y-81.381 E45.23448
G1 X-3.064 Y-81.736 E45.27289
G1 X-2.349 Y-82.017 E45.31121
G1 X-1.607 Y-82.223 E45.34963
G1 X-.849 Y-82.351 E45.38798
G1 X0.00 Y-82.4 E45.43041
G1 X200 Y-82.4 E55.40845
G1 X200.768 Y-82.36 E55.44682
G1 X201.528 Y-82.241 E55.4852
G1 X202.271 Y-82.043 E55.52356
G1 X202.99 Y-81.769 E55.56195
G1 X203.676 Y-81.422 E55.6003
G1 X204.323 Y-81.006 E55.63868
G1 X204.923 Y-80.525 E55.67704
G1 X205.47 Y-79.984 E55.71542
G1 X205.958 Y-79.389 E55.75382
G1 X206.381 Y-78.747 E55.79217
G1 X206.736 Y-78.064 E55.83058
G1 X207.017 Y-77.349 E55.8689
G1 X207.223 Y-76.607 E55.90732
G1 X207.351 Y-75.849 E55.94567
G1 X207.4 Y-75 E55.9881
G1 X207.4 Y75 E63.47163
G1 X207.36 Y75.768 E63.51
G1 X207.241 Y76.528 E63.54838
G1 X207.043 Y77.271 E63.58674
G1 X206.769 Y77.99 E63.62513
G1 X206.422 Y78.676 E63.66348
G1 X206.006 Y79.323 E63.70186
G1 X205.525 Y79.923 E63.74022
G1 X204.984 Y80.47 E63.77861
G1 X204.389 Y80.958 E63.817
G1 X203.747 Y81.381 E63.85535
G1 X203.064 Y81.736 E63.89376
G1 X202.349 Y82.017 E63.93208
G1 X201.607 Y82.223 E63.9705
G1 X200.849 Y82.351 E64.00886
G1 X200 Y82.4 E64.05128
G1 X0.00 Y82.4 E74.02932
G1 X-.768 Y82.36 E74.06769
G1 X-1.528 Y82.241 E74.10607
G1 X-2.271 Y82.043 E74.14443
G1 X-2.99 Y81.769 E74.18282
G1 X-3.676 Y81.422 E74.22117
G1 X-4.323 Y81.006 E74.25955
G1 X-4.923 Y80.525 E74.29791
G1 X-5.47 Y79.984 E74.3363
G1 X-5.958 Y79.389 E74.37469
G1 X-6.381 Y78.747 E74.41305
G1 X-6.736 Y78.064 E74.45145
G1 X-7.017 Y77.349 E74.48978
G1 X-7.223 Y76.607 E74.52819
G1 X-7.351 Y75.849 E74.56655
G1 X-7.4 Y75 E74.60897
G0 F3600 X-7 Y75
G1 F1800 X-7 Y-75 E82.0925
G1 X-6.96 Y-75.747 E82.12983
G1 X-6.841 Y-76.485 E82.16712
G1 X-6.643 Y-77.207 E82.20447
G1 X-6.37 Y-77.903 E82.24177
G1 X-6.023 Y-78.566 E82.2791
G1 X-5.608 Y-79.189 E82.31645
G1 X-5.129 Y-79.763 E82.35375
G1 X-4.592 Y-80.284 E82.39108
G1 X-4.002 Y-80.743 E82.42837
G1 X-3.366 Y-81.138 E82.46572
G1 X-2.692 Y-81.462 E82.50303
G1 X-1.987 Y-81.712 E82.54035
G1 X-1.259 Y-81.886 E82.57769
G1 X-.517 Y-81.981 E82.61501
G1 X0.00 Y-82 E82.64082
G1 X200 Y-82 E92.61886
G1 X200.747 Y-81.96 E92.65619
G1 X201.485 Y-81.841 E92.69348
G1 X202.207 Y-81.643 E92.73083
G1 X202.903 Y-81.37 E92.76813
G1 X203.566 Y-81.023 E92.80546
G1 X204.189 Y-80.608 E92.84281
G1 X204.763 Y-80.129 E92.88011
G1 X205.284 Y-79.592 E92.91744
G1 X205.743 Y-79.002 E92.95473
G1 X206.138 Y-78.366 E92.99208
G1 X206.462 Y-77.692 E93.02939
G1 X206.712 Y-76.987 E93.06671
G1 X206.886 Y-76.259 E93.10405
G1 X206.981 Y-75.517 E93.14137
G1 X207 Y-75 E93.16718
G1 X207 Y75 E100.65072
G1 X206.96 Y75.747 E100.68804
G1 X206.841 Y76.485 E100.72533
G1 X206.643 Y77.207 E100.76268
G1 X206.37 Y77.903 E100.79998
G1 X206.023 Y78.566 E100.83731
G1 X205.608 Y79.189 E100.87466
G1 X205.129 Y79.763 E100.91196
G1 X204.592 Y80.284 E100.94929
G1 X204.002 Y80.743 E100.98658
G1 X203.366 Y81.138 E101.02393
G1 X202.692 Y81.462 E101.06124
G1 X201.987 Y81.712 E101.09856
G1 X201.259 Y81.886 E101.1359
G1 X200.517 Y81.981 E101.17322
G1 X200 Y82 E101.19904
G1 X0.00 Y82 E111.17708
G1 X-.747 Y81.96 E111.2144
G1 X-1.485 Y81.841 E111.25169
G1 X-2.207 Y81.643 E111.28904
G1 X-2.903 Y81.37 E111.32634
G1 X-3.566 Y81.023 E111.36368
G1 X-4.189 Y80.608 E111.40102
G1 X-4.763 Y80.129 E111.43832
G1 X-5.284 Y79.592 E111.47565
G1 X-5.743 Y79.002 E111.51294
G1 X-6.138 Y78.366 E111.55029
G1 X-6.462 Y77.692 E111.5876
G1 X-6.712 Y76.987 E111.62492
G1 X-6.886 Y76.259 E111.66226
G1 X-6.981 Y75.517 E111.69959
G1 X-7 Y75 E111.7254
G0 F3600 X-6.6 Y75
G1 F1800 X-6.6 Y-75 E119.20893
G1 X-6.56 Y-75.725 E119.24515
G1 X-6.441 Y-76.442 E119.28141
G1 X-6.243 Y-77.141 E119.31766
G1 X-5.97 Y-77.814 E119.35389
G1 X-5.625 Y-78.453 E119.39012
G1 X-5.211 Y-79.05 E119.42637
G1 X-4.735 Y-79.598 E119.46258
G1 X-4.201 Y-80.091 E119.49884
G1 X-3.616 Y-80.521 E119.53506
G1 X-2.987 Y-80.885 E119.57132
G1 X-2.322 Y-81.178 E119.60757
G1 X-1.629 Y-81.396 E119.64382
G1 X-.917 Y-81.536 E119.68002
G1 X0.00 Y-81.6 E119.72588
G1 X200 Y-81.6 E129.70392
G1 X200.725 Y-81.56 E129.74014
G1 X201.442 Y-81.441 E129.77641
G1 X202.141 Y-81.243 E129.81265
G1 X202.814 Y-80.97 E129.84888
G1 X203.453 Y-80.625 E129.88511
G1 X204.05 Y-80.211 E129.92136
G1 X204.598 Y-79.735 E129.95757
G1 X205.091 Y-79.201 E129.99383
G1 X205.521 Y-78.616 E130.03005
G1 X205.885 Y-77.987 E130.06631
G1 X206.178 Y-77.322 E130.10256
G1 X206.396 Y-76.629 E130.13881
G1 X206.536 Y-75.917 E130.17501
G1 X206.6 Y-75 E130.22087
G1 X206.6 Y75 E137.7044
G1 X206.56 Y75.725 E137.74063
G1 X206.441 Y76.442 E137.77689
G1 X206.243 Y77.141 E137.81313
G1 X205.97 Y77.814 E137.84937
G1 X205.625 Y78.453 E137.8856
G1 X205.211 Y79.05 E137.92184
G1 X204.735 Y79.598 E137.95806
G1 X204.201 Y80.091 E137.99431
G1 X203.616 Y80.521 E138.03054
G1 X202.987 Y80.885 E138.06679
G1 X202.322 Y81.178 E138.10305
G1 X201.629 Y81.396 E138.13929
G1 X200.917 Y81.536 E138.17549
G1 X200 Y81.6 E138.22135
G1 X0.00 Y81.6 E148.19939
G1 X-.725 Y81.56 E148.23562
G1 X-1.442 Y81.441 E148.27188
G1 X-2.141 Y81.243 E148.30813
G1 X-2.814 Y80.97 E148.34436
G1 X-3.453 Y80.625 E148.38059
G1 X-4.05 Y80.211 E148.41683
G1 X-4.598 Y79.735 E148.45305
G1 X-5.091 Y79.201 E148.48931
G1 X-5.521 Y78.616 E148.52553
G1 X-5.885 Y77.987 E148.56179
G1 X-6.178 Y77.322 E148.59804
G1 X-6.396 Y76.629 E148.63428
G1 X-6.536 Y75.917 E148.67049
G1 X-6.6 Y75 E148.71635
G0 F3600 X-6.2 Y75
G1 F1800 X-6.2 Y-75 E156.19988
G1 X-6.16 Y-75.703 E156.23501
G1 X-6.041 Y-76.397 E156.27014
G1 X-5.843 Y-77.072 E156.30523
G1 X-5.571 Y-77.721 E156.34034
G1 X-5.226 Y-78.335 E156.37548
G1 X-4.815 Y-78.906 E156.41058
G1 X-4.341 Y-79.427 E156.44572
G1 X-3.811 Y-79.891 E156.48086
G1 X-3.232 Y-80.291 E156.51597
G1 X-2.611 Y-80.623 E156.5511
G1 X-1.957 Y-80.883 E156.58621
G1 X-1.277 Y-81.067 E156.62136
G1 X-.581 Y-81.173 E156.65648
G1 X0.00 Y-81.2 E156.6855
G1 X200 Y-81.2 E166.66354
G1 X200.703 Y-81.16 E166.69867
G1 X201.397 Y-81.041 E166.7338
G1 X202.072 Y-80.843 E166.76889
G1 X202.721 Y-80.571 E166.804
G1 X203.335 Y-80.226 E166.83914
G1 X203.906 Y-79.815 E166.87424
G1 X204.427 Y-79.341 E166.90938
G1 X204.891 Y-78.811 E166.94452
G1 X205.291 Y-78.232 E166.97963
G1 X205.623 Y-77.611 E167.01476
G1 X205.883 Y-76.957 E167.04987
G1 X206.067 Y-76.277 E167.08502
G1 X206.173 Y-75.581 E167.12014
G1 X206.2 Y-75 E167.14916
G1 X206.2 Y75 E174.63269
G1 X206.16 Y75.703 E174.66782
G1 X206.041 Y76.397 E174.70295
G1 X205.843 Y77.072 E174.73804
G1 X205.571 Y77.721 E174.77315
G1 X205.226 Y78.335 E174.80829
G1 X204.815 Y78.906 E174.84339
G1 X204.341 Y79.427 E174.87853
G1 X203.811 Y79.891 E174.91367
G1 X203.232 Y80.291 E174.94878
G1 X202.611 Y80.623 E174.98391
G1 X201.957 Y80.883 E175.01902
G1 X201.277 Y81.067 E175.05417
G1 X200.581 Y81.173 E175.08929
G1 X200 Y81.2 E175.11831
G1 X0.00 Y81.2 E185.09635
G1 X-.703 Y81.16 E185.13148
G1 X-1.397 Y81.041 E185.16661
G1 X-2.072 Y80.843 E185.20171
G1 X-2.721 Y80.571 E185.23681
G1 X-3.335 Y80.226 E185.27195
G1 X-3.906 Y79.815 E185.30705
G1 X-4.427 Y79.341 E185.34219
G1 X-4.891 Y78.811 E185.37733
G1 X-5.291 Y78.232 E185.41244
G1 X-5.623 Y77.611 E185.44757
G1 X-5.883 Y76.957 E185.48269
G1 X-6.067 Y76.277 E185.51783
G1 X-6.173 Y75.581 E185.55296
G1 X-6.2 Y75 E185.58197
G0 F3600 X-5.8 Y75
G1 F1800 X-5.8 Y-75 E193.0655
G1 X-5.76 Y-75.68 E193.09949
G1 X-5.641 Y-76.35 E193.13344
G1 X-5.444 Y-77.002 E193.16742
G1 X-5.172 Y-77.626 E193.20138
G1 X-4.828 Y-78.214 E193.23537
G1 X-4.418 Y-78.758 E193.26935
G1 X-3.947 Y-79.249 E193.30329
G1 X-3.422 Y-79.683 E193.33728
G1 X-2.85 Y-80.052 E193.37124
G1 X-2.238 Y-80.351 E193.40522
G1 X-1.596 Y-80.576 E193.43916
G1 X-.931 Y-80.725 E193.47316
G1 X0.00 Y-80.8 E193.51976
G1 X200 Y-80.8 E203.4978
G1 X200.68 Y-80.76 E203.53178
G1 X201.35 Y-80.641 E203.56573
G1 X202.002 Y-80.444 E203.59971
G1 X202.626 Y-80.172 E203.63367
G1 X203.214 Y-79.828 E203.66766
G1 X203.758 Y-79.418 E203.70165
G1 X204.249 Y-78.947 E203.73559
G1 X204.683 Y-78.422 E203.76957
G1 X205.052 Y-77.85 E203.80353
G1 X205.351 Y-77.238 E203.83751
G1 X205.576 Y-76.596 E203.87145
G1 X205.725 Y-75.931 E203.90545
G1 X205.8 Y-75 E203.95205
G1 X205.8 Y75 E211.43558
G1 X205.76 Y75.68 E211.46957
G1 X205.641 Y76.35 E211.50352
G1 X205.444 Y77.002 E211.5375
G1 X205.172 Y77.626 E211.57146
G1 X204.828 Y78.214 E211.60544
G1 X204.418 Y78.758 E211.63943
G1 X203.947 Y79.249 E211.67337
G1 X203.422 Y79.683 E211.70736
G1 X202.85 Y80.052 E211.74132
G1 X202.238 Y80.351 E211.7753
G1 X201.596 Y80.576 E211.80924
G1 X200.931 Y80.725 E211.84324
G1 X200 Y80.8 E211.88984
G1 X0.00 Y80.8 E221.86788
G1 X-.68 Y80.76 E221.90186
G1 X-1.35 Y80.641 E221.93581
G1 X-2.002 Y80.444 E221.96979
G1 X-2.626 Y80.172 E222.00375
G1 X-3.214 Y79.828 E222.03774
G1 X-3.758 Y79.418 E222.07172
G1 X-4.249 Y78.947 E222.10567
G1 X-4.683 Y78.422 E222.13965
G1 X-5.052 Y77.85 E222.17361
G1 X-5.351 Y77.238 E222.20759
G1 X-5.576 Y76.596 E222.24153
G1 X-5.725 Y75.931 E222.27553
G1 X-5.8 Y75 E222.32213
G0 F3600 X-5.4 Y75
G1 F1800 X-5.4 Y-75 E229.80566
G1 X-5.36 Y-75.656 E229.83845
G1 X-5.241 Y-76.302 E229.87122
G1 X-5.044 Y-76.929 E229.90401
G1 X-4.772 Y-77.527 E229.93679
G1 X-4.43 Y-78.088 E229.96957
G1 X-4.022 Y-78.603 E230.00235
G1 X-3.555 Y-79.065 E230.03512
G1 X-3.035 Y-79.466 E230.06788
G1 X-2.471 Y-79.802 E230.10063
G1 X-1.869 Y-80.066 E230.13343
G1 X-1.24 Y-80.256 E230.16621
G1 X-.593 Y-80.367 E230.19896
G1 X0.00 Y-80.4 E230.22859
G1 X200 Y-80.4 E240.20663
G1 X200.656 Y-80.36 E240.23942
G1 X201.302 Y-80.241 E240.27219
G1 X201.929 Y-80.044 E240.30498
G1 X202.527 Y-79.772 E240.33776
G1 X203.088 Y-79.43 E240.37053
G1 X203.603 Y-79.022 E240.40331
G1 X204.065 Y-78.555 E240.43609
G1 X204.466 Y-78.035 E240.46885
G1 X204.802 Y-77.471 E240.5016
G1 X205.066 Y-76.869 E240.5344
G1 X205.256 Y-76.24 E240.56718
G1 X205.367 Y-75.593 E240.59993
G1 X205.4 Y-75 E240.62956
G1 X205.4 Y75 E248.11309
G1 X205.36 Y75.656 E248.14588
G1 X205.241 Y76.302 E248.17865
G1 X205.044 Y76.929 E248.21144
G1 X204.772 Y77.527 E248.24421
G1 X204.43 Y78.088 E248.27699
G1 X204.022 Y78.603 E248.30977
G1 X203.555 Y79.065 E248.34255
G1 X203.035 Y79.466 E248.37531
G1 X202.471 Y79.802 E248.40806
G1 X201.869 Y80.066 E248.44085
G1 X201.24 Y80.256 E248.47364
G1 X200.593 Y80.367 E248.50639
G1 X200 Y80.4 E248.53602
G1 X0.00 Y80.4 E258.51406
G1 X-.656 Y80.36 E258.54685
G1 X-1.302 Y80.241 E258.57962
G1 X-1.929 Y80.044 E258.61241
G1 X-2.527 Y79.772 E258.64518
G1 X-3.088 Y79.43 E258.67796
G1 X-3.603 Y79.022 E258.71074
G1 X-4.065 Y78.555 E258.74351
G1 X-4.466 Y78.035 E258.77627
G1 X-4.802 Y77.471 E258.80903
G1 X-5.066 Y76.869 E258.84182
G1 X-5.256 Y76.24 E258.8746
G1 X-5.367 Y75.593 E258.90735
G1 X-5.4 Y75 E258.93699
G0 F3600 X-5 Y75
G1 F1800 X-5 Y-75 E266.42052
G1 X-4.96 Y-75.631 E266.45206
G1 X-4.841 Y-76.252 E266.4836
G1 X-4.644 Y-76.852 E266.51511
G1 X-4.373 Y-77.424 E266.54669
G1 X-4.033 Y-77.956 E266.57819
G1 X-3.627 Y-78.441 E266.60974
G1 X-3.164 Y-78.871 E266.64127
G1 X-2.65 Y-79.24 E266.67284
G1 X-2.094 Y-79.54 E266.70436
G1 X-1.505 Y-79.768 E266.73587
G1 X-.891 Y-79.92 E266.76742
G1 X0.00 Y-80 E266.81205
G1 X200 Y-80 E276.79009
G1 X200.631 Y-79.96 E276.82164
G1 X201.252 Y-79.841 E276.85318
G1 X201.852 Y-79.644 E276.88469
G1 X202.424 Y-79.373 E276.91627
G1 X202.956 Y-79.033 E276.94777
G1 X203.441 Y-78.627 E276.97932
G1 X203.871 Y-78.164 E277.01085
G1 X204.24 Y-77.65 E277.04241
G1 X204.54 Y-77.094 E277.07393
G1 X204.768 Y-76.505 E277.10544
G1 X204.92 Y-75.891 E277.137
G1 X205 Y-75 E277.18163
G1 X205 Y75 E284.66516
G1 X204.96 Y75.631 E284.69671
G1 X204.841 Y76.252 E284.72825
G1 X204.644 Y76.852 E284.75976
G1 X204.373 Y77.424 E284.79134
G1 X204.033 Y77.956 E284.82284
G1 X203.627 Y78.441 E284.85439
G1 X203.164 Y78.871 E284.88592
G1 X202.65 Y79.24 E284.91748
G1 X202.094 Y79.54 E284.949
G1 X201.505 Y79.768 E284.98051
G1 X200.891 Y79.92 E285.01207
G1 X200 Y80 E285.0567
G1 X0.00 Y80 E295.03474
G1 X-.631 Y79.96 E295.06628
G1 X-1.252 Y79.841 E295.09783
G1 X-1.852 Y79.644 E295.12934
G1 X-2.424 Y79.373 E295.16091
G1 X-2.956 Y79.033 E295.19241
G1 X-3.441 Y78.627 E295.22397
G1 X-3.871 Y78.164 E295.25549
G1 X-4.24 Y77.65 E295.28706
G1 X-4.54 Y77.094 E295.31858
G1 X-4.768 Y76.505 E295.35009
G1 X-4.92 Y75.891 E295.38165
G1 X-5 Y75 E295.42628
G0 F3600 X-4.6 Y75
G1 F1800 X-4.6 Y-75 E302.90981
G1 X-4.56 Y-75.605 E302.94006
G1 X-4.441 Y-76.199 E302.97028
G1 X-4.245 Y-76.773 E303.00054
G1 X-3.974 Y-77.316 E303.03082
G1 X-3.635 Y-77.819 E303.06108
G1 X-3.233 Y-78.272 E303.0913
G1 X-2.775 Y-78.669 E303.12154
G1 X-2.268 Y-79.002 E303.1518
G1 X-1.722 Y-79.266 E303.18206
G1 X-1.146 Y-79.455 E303.2123
G1 X-.55 Y-79.567 E303.24256
G1 X0.00 Y-79.6 E303.27004
G1 X200 Y-79.6 E313.24809
G1 X200.605 Y-79.56 E313.27833
G1 X201.199 Y-79.441 E313.30856
G1 X201.773 Y-79.245 E313.33882
G1 X202.316 Y-78.974 E313.3691
G1 X202.819 Y-78.635 E313.39936
G1 X203.272 Y-78.233 E313.42957
G1 X203.669 Y-77.775 E313.45981
G1 X204.002 Y-77.268 E313.49007
G1 X204.266 Y-76.722 E313.52033
G1 X204.455 Y-76.146 E313.55058
G1 X204.567 Y-75.55 E313.58083
G1 X204.6 Y-75 E313.60832
G1 X204.6 Y75 E321.09185
G1 X204.56 Y75.605 E321.1221
G1 X204.441 Y76.199 E321.15232
G1 X204.245 Y76.773 E321.18258
G1 X203.974 Y77.316 E321.21286
G1 X203.635 Y77.819 E321.24312
G1 X203.233 Y78.272 E321.27334
G1 X202.775 Y78.669 E321.30358
G1 X202.268 Y79.002 E321.33384
G1 X201.722 Y79.266 E321.3641
G1 X201.146 Y79.455 E321.39434
G1 X200.55 Y79.567 E321.4246
G1 X200 Y79.6 E321.45209
G1 X0.00 Y79.6 E331.43013
