;FLAVOR:Marlin
;TIME:4603
;Filament used: 3.84082m
;Layer height: 0.4
;Generated with Cura_SteamEngine 4.0.0
M104 S200
M105
M109 S200
M82 ;absolute extrusion mode
G28 ;Home
G1 Z15.0 F6000 ;Move the platform down 15mm
;Prime the extruder
G92 E0
G1 F200 E3
G92 E0
G92 E0
G1 F1500 E-6.5
;LAYER_COUNT:51
;LAYER:0
M107
;MESH:TestPrint.stl
G0 F3600 X-30.6 Y-30.6 Z0.3
;TYPE:WALL-INNER
G1 F1500 E0
G1 F1800 X-30.6 Y30.6 E1.15121
G1 X30.6 Y30.6 E2.30241
G1 X30.6 Y-30.6 E3.45362
G1 X-30.6 Y-30.6 E4.60482
G0 F3600 X-30.67 Y-30.67
G0 X30.628 Y-30.628
G0 X49.33 Y49.33
G0 X49.4 Y49.4
G1 F1800 X-49.4 Y49.4 E6.46331
G1 X-49.4 Y-49.4 E8.32179
G1 X49.4 Y-49.4 E10.18027
G1 X49.4 Y49.4 E12.03876
G0 F3600 X49.8 Y49.8
;TYPE:WALL-OUTER
G1 F1800 X-49.8 Y49.8 E13.91229
G1 X-49.8 Y-49.8 E15.78582
G1 X49.8 Y-49.8 E17.65935
G1 X49.8 Y49.8 E19.53288
G0 F3600 X49.6 Y49.8
G0 X49.33 Y49.33
G0 X30.628 Y-30.628
G0 X-30.2 Y-30.7
G0 X-30.2 Y-30.2
G1 F1800 X-30.2 Y30.2 E20.66904
G1 X30.2 Y30.2 E21.8052
G1 X30.2 Y-30.2 E22.94135
G1 X-30.2 Y-30.2 E24.07751
G0 F3600 X-30.2 Y-30
G0 X-30.7 Y-30
G0 X-30.99 Y-30.99
;TYPE:SKIN
G1 F1800 X-30.99 Y30.99 E25.24339
G1 X30.99 Y30.99 E26.40927
G1 X30.99 Y-30.99 E27.57515
G1 X-30.99 Y-30.99 E28.74103
G0 F3600 X-49.01 Y-49.01
G1 F1800 X49.01 Y-49.01 E30.58484
G1 X49.01 Y49.01 E32.42865
G1 X-49.01 Y49.01 E34.27246
G1 X-49.01 Y-49.01 E36.11627
G0 F3600 X48.467 Y-48.829
G1 F1800 X48.829 Y-48.467 E36.1259
G0 F3600 X48.829 Y-47.902
G1 F1800 X47.902 Y-48.829 E36.15056
G0 F3600 X47.336 Y-48.829
G1 F1800 X48.829 Y-47.336 E36.19028
G0 F3600 X48.829 Y-46.77
G1 F1800 X46.77 Y-48.829 E36.24505
G0 F3600 X46.205 Y-48.829
G1 F1800 X48.829 Y-46.205 E36.31485
G0 F3600 X48.829 Y-45.639
G1 F1800 X45.639 Y-48.829 E36.39971
G0 F3600 X45.073 Y-48.829
G1 F1800 X48.829 Y-45.073 E36.49963
G0 F3600 X48.829 Y-44.508
G1 F1800 X44.508 Y-48.829 E36.61458
G0 F3600 X43.942 Y-48.829
G1 F1800 X48.829 Y-43.942 E36.74458
G0 F3600 X48.829 Y-43.376
G1 F1800 X43.376 Y-48.829 E36.88965
G0 F3600 X42.811 Y-48.829
G1 F1800 X48.829 Y-42.811 E37.04974
G0 F3600 X48.829 Y-42.245
G1 F1800 X42.245 Y-48.829 E37.22489
G0 F3600 X41.679 Y-48.829
G1 F1800 X48.829 Y-41.679 E37.41509
G0 F3600 X48.829 Y-41.114
G1 F1800 X41.114 Y-48.829 E37.62033
G0 F3600 X40.548 Y-48.829
G1 F1800 X48.829 Y-40.548 E37.84062
G0 F3600 X48.829 Y-39.982
G1 F1800 X39.982 Y-48.829 E38.07597
G0 F3600 X39.416 Y-48.829
G1 F1800 X48.829 Y-39.416 E38.32637
G0 F3600 X48.829 Y-38.851
G1 F1800 X38.851 Y-48.829 E38.59181
G0 F3600 X38.285 Y-48.829
G1 F1800 X48.829 Y-38.285 E38.8723
G0 F3600 X48.829 Y-37.719
G1 F1800 X37.719 Y-48.829 E39.16785
G0 F3600 X37.154 Y-48.829
G1 F1800 X48.829 Y-37.154 E39.47843
G0 F3600 X48.829 Y-36.588
G1 F1800 X36.588 Y-48.829 E39.80407
G0 F3600 X36.022 Y-48.829
G1 F1800 X48.829 Y-36.022 E40.14476
G0 F3600 X48.829 Y-35.457
G1 F1800 X35.457 Y-48.829 E40.50049
G0 F3600 X34.891 Y-48.829
G1 F1800 X48.829 Y-34.891 E40.87127
G0 F3600 X48.829 Y-34.325
G1 F1800 X34.325 Y-48.829 E41.25711
G0 F3600 X33.76 Y-48.829
G1 F1800 X48.829 Y-33.76 E41.65797
G0 F3600 X48.829 Y-33.194
G1 F1800 X33.194 Y-48.829 E42.0739
G0 F3600 X32.628 Y-48.829
G1 F1800 X48.829 Y-32.628 E42.50488
G0 F3600 X48.829 Y-32.063
G1 F1800 X32.063 Y-48.829 E42.95089
G0 F3600 X31.497 Y-48.829
G1 F1800 X48.829 Y-31.497 E43.41196
G0 F3600 X48.829 Y-30.931
G1 F1800 X30.931 Y-48.829 E43.88808
G0 F3600 X30.365 Y-48.829
G1 F1800 X48.829 Y-30.365 E44.37927
G0 F3600 X48.829 Y-29.8
G1 F1800 X29.8 Y-48.829 E44.88548
G0 F3600 X29.234 Y-48.829
G1 F1800 X48.829 Y-29.234 E45.40675
G0 F3600 X48.829 Y-28.668
G1 F1800 X28.668 Y-48.829 E45.94307
G0 F3600 X28.103 Y-48.829
G1 F1800 X48.829 Y-28.103 E46.49443
G0 F3600 X48.829 Y-27.537
G1 F1800 X27.537 Y-48.829 E47.06084
G0 F3600 X26.971 Y-48.829
G1 F1800 X48.829 Y-26.971 E47.64231
G0 F3600 X48.829 Y-26.406
G1 F1800 X26.406 Y-48.829 E48.23881
G0 F3600 X25.84 Y-48.829
G1 F1800 X48.829 Y-25.84 E48.85037
G0 F3600 X48.829 Y-25.274
G1 F1800 X25.274 Y-48.829 E49.47698
G0 F3600 X24.709 Y-48.829
G1 F1800 X48.829 Y-24.709 E50.11863
G0 F3600 X48.829 Y-24.143
G1 F1800 X24.143 Y-48.829 E50.77533
G0 F3600 X23.577 Y-48.829
G1 F1800 X48.829 Y-23.577 E51.44708
G0 F3600 X48.829 Y-23.012
G1 F1800 X23.012 Y-48.829 E52.13387
G0 F3600 X22.446 Y-48.829
G1 F1800 X48.829 Y-22.446 E52.83572
G0 F3600 X48.829 Y-21.88
G1 F1800 X21.88 Y-48.829 E53.55262
G0 F3600 X21.315 Y-48.829
G1 F1800 X48.829 Y-21.315 E54.28455
G0 F3600 X48.829 Y-20.749
G1 F1800 X20.749 Y-48.829 E55.03154
G0 F3600 X20.183 Y-48.829
G1 F1800 X48.829 Y-20.183 E55.79358
G0 F3600 X48.829 Y-19.617
G1 F1800 X19.617 Y-48.829 E56.57068
G0 F3600 X19.052 Y-48.829
G1 F1800 X48.829 Y-19.052 E57.36282
G0 F3600 X48.829 Y-18.486
G1 F1800 X18.486 Y-48.829 E58.17
G0 F3600 X17.92 Y-48.829
G1 F1800 X48.829 Y-17.92 E58.99225
G0 F3600 X48.829 Y-17.355
G1 F1800 X17.355 Y-48.829 E59.82953
G0 F3600 X16.789 Y-48.829
G1 F1800 X48.829 Y-16.789 E60.68186
G0 F3600 X48.829 Y-16.223
G1 F1800 X16.223 Y-48.829 E61.54925
G0 F3600 X15.658 Y-48.829
G1 F1800 X48.829 Y-15.658 E62.43167
G0 F3600 X48.829 Y-15.092
G1 F1800 X15.092 Y-48.829 E63.32914
G0 F3600 X14.526 Y-48.829
G1 F1800 X48.829 Y-14.526 E64.24168
G0 F3600 X48.829 Y-13.961
G1 F1800 X13.961 Y-48.829 E65.16924
G0 F3600 X13.395 Y-48.829
G1 F1800 X31.055 Y-31.169 E65.63904
G0 F3600 X31.169 Y-31.055
G1 F1800 X48.829 Y-13.395 E66.10883
G0 F3600 X48.829 Y-12.829
G1 F1800 X31.169 Y-30.489 E66.57862
G0 F3600 X31.169 Y-29.924
G1 F1800 X48.829 Y-12.264 E67.04842
G0 F3600 X48.829 Y-11.698
G1 F1800 X31.169 Y-29.358 E67.51821
G0 F3600 X31.169 Y-28.792
G1 F1800 X48.829 Y-11.132 E67.988
G0 F3600 X48.829 Y-10.567
G1 F1800 X31.169 Y-28.226 E68.45779
G0 F3600 X31.169 Y-27.661
G1 F1800 X48.829 Y-10.001 E68.92758
G0 F3600 X48.829 Y-9.435
G1 F1800 X31.169 Y-27.095 E69.39737
G0 F3600 X31.169 Y-26.529
G1 F1800 X48.829 Y-8.869 E69.86717
G0 F3600 X48.829 Y-8.304
G1 F1800 X31.169 Y-25.964 E70.33696
G0 F3600 X31.169 Y-25.398
G1 F1800 X48.829 Y-7.738 E70.80675
G0 F3600 X48.829 Y-7.172
G1 F1800 X31.169 Y-24.832 E71.27655
G0 F3600 X31.169 Y-24.267
G1 F1800 X48.829 Y-6.607 E71.74634
G0 F3600 X48.829 Y-6.041
G1 F1800 X31.169 Y-23.701 E72.21614
G0 F3600 X31.169 Y-23.135
G1 F1800 X48.829 Y-5.475 E72.68593
G0 F3600 X48.829 Y-4.91
G1 F1800 X31.169 Y-22.57 E73.15572
G0 F3600 X31.169 Y-22.004
G1 F1800 X48.829 Y-4.344 E73.62552
G0 F3600 X48.829 Y-3.778
G1 F1800 X31.169 Y-21.438 E74.09531
G0 F3600 X31.169 Y-20.873
G1 F1800 X48.829 Y-3.213 E74.56511
G0 F3600 X48.829 Y-2.647
G1 F1800 X31.169 Y-20.307 E75.0349
G0 F3600 X31.169 Y-19.741
G1 F1800 X48.829 Y-2.081 E75.50469
G0 F3600 X48.829 Y-1.516
G1 F1800 X31.169 Y-19.176 E75.97449
G0 F3600 X31.169 Y-18.61
G1 F1800 X48.829 Y-.95 E76.44428
G0 F3600 X48.829 Y-.384
G1 F1800 X31.169 Y-18.044 E76.91407
G0 F3600 X31.169 Y-17.478
G1 F1800 X48.829 Y0.181 E77.38386
G0 F3600 X48.829 Y0.746
G1 F1800 X31.169 Y-16.913 E77.85364
G0 F3600 X31.169 Y-16.347
G1 F1800 X48.829 Y1.312 E78.32342
G0 F3600 X48.829 Y1.878
G1 F1800 X31.169 Y-15.781 E78.7932
G0 F3600 X31.169 Y-15.216
G1 F1800 X48.829 Y2.443 E79.26298
G0 F3600 X48.829 Y3.009
G1 F1800 X31.169 Y-14.65 E79.73276
G0 F3600 X31.169 Y-14.084
G1 F1800 X48.829 Y3.575 E80.20254
G0 F3600 X48.829 Y4.14
G1 F1800 X31.169 Y-13.519 E80.67232
G0 F3600 X31.169 Y-12.953
G1 F1800 X48.829 Y4.706 E81.1421
G0 F3600 X48.829 Y5.272
G1 F1800 X31.169 Y-12.387 E81.61188
G0 F3600 X31.169 Y-11.822
G1 F1800 X48.829 Y5.837 E82.08166
G0 F3600 X48.829 Y6.403
G1 F1800 X31.169 Y-11.256 E82.55144
G0 F3600 X31.169 Y-10.69
G1 F1800 X48.829 Y6.969 E83.02122
G0 F3600 X48.829 Y7.534
G1 F1800 X31.169 Y-10.125 E83.491
G0 F3600 X31.169 Y-9.559
G1 F1800 X48.829 Y8.1 E83.96078
G0 F3600 X48.829 Y8.666
G1 F1800 X31.169 Y-8.993 E84.43056
G0 F3600 X31.169 Y-8.428
G1 F1800 X48.829 Y9.231 E84.90034
G0 F3600 X48.829 Y9.797
G1 F1800 X31.169 Y-7.862 E85.37013
G0 F3600 X31.169 Y-7.296
G1 F1800 X48.829 Y10.363 E85.83991
G0 F3600 X48.829 Y10.929
G1 F1800 X31.169 Y-6.73 E86.30969
G0 F3600 X31.169 Y-6.165
G1 F1800 X48.829 Y11.494 E86.77947
G0 F3600 X48.829 Y12.06
G1 F1800 X31.169 Y-5.599 E87.24925
G0 F3600 X31.169 Y-5.033
G1 F1800 X48.829 Y12.626 E87.71903
G0 F3600 X48.829 Y13.191
G1 F1800 X31.169 Y-4.468 E88.18881
G0 F3600 X31.169 Y-3.902
G1 F1800 X48.829 Y13.757 E88.65859
G0 F3600 X48.829 Y14.323
G1 F1800 X31.169 Y-3.336 E89.12837
G0 F3600 X31.169 Y-2.771
G1 F1800 X48.829 Y14.888 E89.59815
G0 F3600 X48.829 Y15.454
G1 F1800 X31.169 Y-2.205 E90.06793
G0 F3600 X31.169 Y-1.639
G1 F1800 X48.829 Y16.02 E90.53771
G0 F3600 X48.829 Y16.585
G1 F1800 X31.169 Y-1.074 E91.00749
G0 F3600 X31.169 Y-.508
G1 F1800 X48.829 Y17.151 E91.47727
G0 F3600 X48.829 Y17.717
G1 F1800 X31.169 Y0.057 E91.94707
G0 F3600 X31.169 Y0.622
G1 F1800 X48.829 Y18.282 E92.41686
G0 F3600 X48.829 Y18.848
G1 F1800 X31.169 Y1.188 E92.88665
G0 F3600 X31.169 Y1.754
G1 F1800 X48.829 Y19.414 E93.35645
G0 F3600 X48.829 Y19.98
G1 F1800 X31.169 Y2.32 E93.82624
G0 F3600 X31.169 Y2.885
G1 F1800 X48.829 Y20.545 E94.29604
G0 F3600 X48.829 Y21.111
G1 F1800 X31.169 Y3.451 E94.76583
G0 F3600 X31.169 Y4.017
G1 F1800 X48.829 Y21.677 E95.23562
G0 F3600 X48.829 Y22.242
G1 F1800 X31.169 Y4.582 E95.70542
G0 F3600 X31.169 Y5.148
G1 F1800 X48.829 Y22.808 E96.17521
G0 F3600 X48.829 Y23.374
G1 F1800 X31.169 Y5.714 E96.645
G0 F3600 X31.169 Y6.279
G1 F1800 X48.829 Y23.939 E97.1148
G0 F3600 X48.829 Y24.505
G1 F1800 X31.169 Y6.845 E97.58459
G0 F3600 X31.169 Y7.411
G1 F1800 X48.829 Y25.071 E98.05439
G0 F3600 X48.829 Y25.636
G1 F1800 X31.169 Y7.976 E98.52418
G0 F3600 X31.169 Y8.542
G1 F1800 X48.829 Y26.202 E98.99397
G0 F3600 X48.829 Y26.768
G1 F1800 X31.169 Y9.108 E99.46377
G0 F3600 X31.169 Y9.673
G1 F1800 X48.829 Y27.333 E99.93356
G0 F3600 X48.829 Y27.899
G1 F1800 X31.169 Y10.239 E100.40336
G0 F3600 X31.169 Y10.805
G1 F1800 X48.829 Y28.465 E100.87315
G0 F3600 X48.829 Y29.03
G1 F1800 X31.169 Y11.37 E101.34294
G0 F3600 X31.169 Y11.936
G1 F1800 X48.829 Y29.596 E101.81274
G0 F3600 X48.829 Y30.162
G1 F1800 X31.169 Y12.502 E102.28253
G0 F3600 X31.169 Y13.068
G1 F1800 X48.829 Y30.728 E102.75233
G0 F3600 X48.829 Y31.293
G1 F1800 X31.169 Y13.633 E103.22212
G0 F3600 X31.169 Y14.199
G1 F1800 X48.829 Y31.859 E103.69191
G0 F3600 X48.829 Y32.425
G1 F1800 X31.169 Y14.765 E104.16171
G0 F3600 X31.169 Y15.33
G1 F1800 X48.829 Y32.99 E104.6315
G0 F3600 X48.829 Y33.556
G1 F1800 X31.169 Y15.896 E105.10129
G0 F3600 X31.169 Y16.462
G1 F1800 X48.829 Y34.122 E105.57109
G0 F3600 X48.829 Y34.687
G1 F1800 X31.169 Y17.027 E106.04088
G0 F3600 X31.169 Y17.593
G1 F1800 X48.829 Y35.253 E106.51068
G0 F3600 X48.829 Y35.819
G1 F1800 X31.169 Y18.159 E106.98047
G0 F3600 X31.169 Y18.724
G1 F1800 X48.829 Y36.384 E107.45026
G0 F3600 X48.829 Y36.95
G1 F1800 X31.169 Y19.29 E107.92006
G0 F3600 X31.169 Y19.856
G1 F1800 X48.829 Y37.516 E108.38985
G0 F3600 X48.829 Y38.081
G1 F1800 X31.169 Y20.421 E108.85965
G0 F3600 X31.169 Y20.987
G1 F1800 X48.829 Y38.647 E109.32944
G0 F3600 X48.829 Y39.213
G1 F1800 X31.169 Y21.553 E109.79923
G0 F3600 X31.169 Y22.119
G1 F1800 X48.829 Y39.778 E110.26901
G0 F3600 X48.829 Y40.344
G1 F1800 X31.169 Y22.684 E110.73881
G0 F3600 X31.169 Y23.25
G1 F1800 X48.829 Y40.91 E111.2086
G0 F3600 X48.829 Y41.476
G1 F1800 X31.169 Y23.816 E111.6784
G0 F3600 X31.169 Y24.381
G1 F1800 X48.829 Y42.041 E112.14819
G0 F3600 X48.829 Y42.607
G1 F1800 X31.169 Y24.947 E112.61798
G0 F3600 X31.169 Y25.513
G1 F1800 X48.829 Y43.173 E113.08778
G0 F3600 X48.829 Y43.738
G1 F1800 X31.169 Y26.078 E113.55757
G0 F3600 X31.169 Y26.644
G1 F1800 X48.829 Y44.304 E114.02736
G0 F3600 X48.829 Y44.87
G1 F1800 X31.169 Y27.21 E114.49716
G0 F3600 X31.169 Y27.775
G1 F1800 X48.829 Y45.435 E114.96695
G0 F3600 X48.829 Y46.001
G1 F1800 X31.169 Y28.341 E115.43675
G0 F3600 X31.169 Y28.907
G1 F1800 X48.829 Y46.567 E115.90654
G0 F3600 X48.829 Y47.132
G1 F1800 X31.169 Y29.472 E116.37633
G0 F3600 X31.169 Y30.038
G1 F1800 X48.829 Y47.698 E116.84613
G0 F3600 X48.829 Y48.264
G1 F1800 X31.169 Y30.604 E117.31592
G0 F3600 X31.169 Y31.169
G1 F1800 X48.829 Y48.829 E117.78572
G0 F3600 X48.264 Y48.829
G1 F1800 X30.604 Y31.169 E118.25551
G0 F3600 X30.038 Y31.169
G1 F1800 X47.698 Y48.829 E118.7253
G0 F3600 X47.132 Y48.829
G1 F1800 X29.472 Y31.169 E119.1951
G0 F3600 X28.907 Y31.169
G1 F1800 X46.567 Y48.829 E119.66489
G0 F3600 X46.001 Y48.829
G1 F1800 X28.341 Y31.169 E120.13468
G0 F3600 X27.775 Y31.169
G1 F1800 X45.435 Y48.829 E120.60448
G0 F3600 X44.87 Y48.829
G1 F1800 X27.21 Y31.169 E121.07427
G0 F3600 X26.644 Y31.169
G1 F1800 X44.304 Y48.829 E121.54407
G0 F3600 X43.738 Y48.829
G1 F1800 X26.078 Y31.169 E122.01386
G0 F3600 X25.513 Y31.169
G1 F1800 X43.173 Y48.829 E122.48365
G0 F3600 X42.607 Y48.829
G1 F1800 X24.947 Y31.169 E122.95345
G0 F3600 X24.381 Y31.169
G1 F1800 X42.041 Y48.829 E123.42324
G0 F3600 X41.476 Y48.829
G1 F1800 X23.816 Y31.169 E123.89304
G0 F3600 X23.25 Y31.169
G1 F1800 X40.91 Y48.829 E124.36283
G0 F3600 X40.344 Y48.829
G1 F1800 X22.684 Y31.169 E124.83262
G0 F3600 X22.119 Y31.169
G1 F1800 X39.778 Y48.829 E125.3024
G0 F3600 X39.213 Y48.829
G1 F1800 X21.553 Y31.169 E125.7722
G0 F3600 X20.987 Y31.169
G1 F1800 X38.647 Y48.829 E126.24199
G0 F3600 X38.081 Y48.829
G1 F1800 X20.421 Y31.169 E126.71179
G0 F3600 X19.856 Y31.169
G1 F1800 X37.516 Y48.829 E127.18158
G0 F3600 X36.95 Y48.829
G1 F1800 X19.29 Y31.169 E127.65137
G0 F3600 X18.724 Y31.169
G1 F1800 X36.384 Y48.829 E128.12117
G0 F3600 X35.819 Y48.829
G1 F1800 X18.159 Y31.169 E128.59096
G0 F3600 X17.593 Y31.169
G1 F1800 X35.253 Y48.829 E129.06076
G0 F3600 X34.687 Y48.829
G1 F1800 X17.027 Y31.169 E129.53055
G0 F3600 X16.462 Y31.169
G1 F1800 X34.122 Y48.829 E130.00034
G0 F3600 X33.556 Y48.829
G1 F1800 X15.896 Y31.169 E130.47014
G0 F3600 X15.33 Y31.169
G1 F1800 X32.99 Y48.829 E130.93993
G0 F3600 X32.425 Y48.829
G1 F1800 X14.765 Y31.169 E131.40972
G0 F3600 X14.199 Y31.169
G1 F1800 X31.859 Y48.829 E131.87952
G0 F3600 X31.293 Y48.829
G1 F1800 X13.633 Y31.169 E132.34931
G0 F3600 X13.068 Y31.169
G1 F1800 X30.728 Y48.829 E132.81911
G0 F3600 X30.162 Y48.829
G1 F1800 X12.502 Y31.169 E133.2889
G0 F3600 X11.936 Y31.169
G1 F1800 X29.596 Y48.829 E133.75869
G0 F3600 X29.03 Y48.829
G1 F1800 X11.37 Y31.169 E134.22849
G0 F3600 X10.805 Y31.169
G1 F1800 X28.465 Y48.829 E134.69828
G0 F3600 X27.899 Y48.829
G1 F1800 X10.239 Y31.169 E135.16808
G0 F3600 X9.673 Y31.169
G1 F1800 X27.333 Y48.829 E135.63787
G0 F3600 X26.768 Y48.829
G1 F1800 X9.108 Y31.169 E136.10766
G0 F3600 X8.542 Y31.169
G1 F1800 X26.202 Y48.829 E136.57746
G0 F3600 X25.636 Y48.829
G1 F1800 X7.976 Y31.169 E137.04725
G0 F3600 X7.411 Y31.169
G1 F1800 X25.071 Y48.829 E137.51704
G0 F3600 X24.505 Y48.829
G1 F1800 X6.845 Y31.169 E137.98684
G0 F3600 X6.279 Y31.169
G1 F1800 X23.939 Y48.829 E138.45663
G0 F3600 X23.374 Y48.829
G1 F1800 X5.714 Y31.169 E138.92643
G0 F3600 X5.148 Y31.169
G1 F1800 X22.808 Y48.829 E139.39622
G0 F3600 X22.242 Y48.829
G1 F1800 X4.582 Y31.169 E139.86601
G0 F3600 X4.017 Y31.169
G1 F1800 X21.677 Y48.829 E140.33581
G0 F3600 X21.111 Y48.829
G1 F1800 X3.451 Y31.169 E140.8056
G0 F3600 X2.885 Y31.169
G1 F1800 X20.545 Y48.829 E141.2754
G0 F3600 X19.98 Y48.829
G1 F1800 X2.32 Y31.169 E141.74519
G0 F3600 X1.754 Y31.169
G1 F1800 X19.414 Y48.829 E142.21498
G0 F3600 X18.848 Y48.829
G1 F1800 X1.188 Y31.169 E142.68478
G0 F3600 X0.622 Y31.169
G1 F1800 X18.282 Y48.829 E143.15457
G0 F3600 X17.717 Y48.829
G1 F1800 X0.057 Y31.169 E143.62436
G0 F3600 X-.508 Y31.169
G1 F1800 X17.151 Y48.829 E144.09415
G0 F3600 X16.585 Y48.829
G1 F1800 X-1.074 Y31.169 E144.56393
G0 F3600 X-1.639 Y31.169
G1 F1800 X16.02 Y48.829 E145.03371
G0 F3600 X15.454 Y48.829
G1 F1800 X-2.205 Y31.169 E145.50349
G0 F3600 X-2.771 Y31.169
G1 F1800 X14.888 Y48.829 E145.97327
G0 F3600 X14.323 Y48.829
G1 F1800 X-3.336 Y31.169 E146.44305
G0 F3600 X-3.902 Y31.169
G1 F1800 X13.757 Y48.829 E146.91283
G0 F3600 X13.191 Y48.829
G1 F1800 X-4.468 Y31.169 E147.38261
G0 F3600 X-5.033 Y31.169
G1 F1800 X12.626 Y48.829 E147.85239
G0 F3600 X12.06 Y48.829
G1 F1800 X-5.599 Y31.169 E148.32217
G0 F3600 X-6.165 Y31.169
G1 F1800 X11.494 Y48.829 E148.79195
G0 F3600 X10.929 Y48.829
G1 F1800 X-6.73 Y31.169 E149.26173
G0 F3600 X-7.296 Y31.169
